X:1
T: Cameron's Wife
T: Cameron's got his wife again
R:Strathspey
Q: 128
K:D
M:4/4
L:1/16
|:f|d3B A3F AAA2 A3B|d3B A3F EEE2 E3c|d3B A3F A3g f3e|d3B A3F DDD2 D3g|
f3d f3a e3g f3e|f3d f3a BBB2 B3g|f3d f3a e3g f3e|d3B A3F DDD2 D3g|
f3d f3a e3g f3e|f3d f3a BBB2 B3c|defg a3f e3g f3e|d3B A3F DDD2 D3:|
